source/assets/images/flags/Vietnam.svg

<svg width="900" height="600" viewBox="0 0 900 600" xmlns="http://www.w3.org/2000/svg"><title>Vietnam</title><g fill="none" fill-rule="evenodd"><path d="M0 600h900V0H0v600z" fill="#C72A2A"/><path d="M329.2 435.623l40.41-124.377-105.8-76.87h130.777L435 110l40.413 124.377H606.19l-105.8 76.87 40.41 124.376-105.8-76.87-105.8 76.87" fill="#F4EA2A"/></g></svg>

<?xml version="1.0" encoding="UTF-8" standalone="no"?>
<svg width="900px" height="600px" viewBox="0 0 900 600" version="1.1" xmlns="http://www.w3.org/2000/svg" xmlns:xlink="http://www.w3.org/1999/xlink" xmlns:sketch="http://www.bohemiancoding.com/sketch/ns">
    <!-- Generator: Sketch 3.3.3 (12072) - http://www.bohemiancoding.com/sketch -->
    <title>Vietnam</title>
    <desc>Created with Sketch.</desc>
    <defs></defs>
    <g id="Page-1" stroke="none" stroke-width="1" fill="none" fill-rule="evenodd" sketch:type="MSPage">
        <g id="Vietnam" sketch:type="MSLayerGroup">
            <path d="M0,600 L900,600 L900,0 L0,0 L0,600 Z" id="Fill-1" fill="#C72A2A" sketch:type="MSShapeGroup"></path>
            <path d="M329.199,435.623 L369.611,311.246 L263.81,234.377 L394.587,234.377 L435,110 L475.413,234.377 L606.19,234.377 L500.389,311.246 L540.801,435.623 L435,358.754 L329.199,435.623" id="Fill-2" fill="#F4EA2A" sketch:type="MSShapeGroup"></path>
        </g>
    </g>
</svg>
